cursors/src/svg/left_side.svg

<?xml version="1.0" encoding="UTF-8" standalone="no"?>
<svg
   xmlns:dc="http://purl.org/dc/elements/1.1/"
   xmlns:cc="http://creativecommons.org/ns#"
   xmlns:rdf="http://www.w3.org/1999/02/22-rdf-syntax-ns#"
   xmlns:svg="http://www.w3.org/2000/svg"
   xmlns="http://www.w3.org/2000/svg"
   xmlns:sodipodi="http://sodipodi.sourceforge.net/DTD/sodipodi-0.dtd"
   xmlns:inkscape="http://www.inkscape.org/namespaces/inkscape"
   width="32"
   height="32"
   version="1.1"
   viewBox="0 0 32 32"
   id="svg26"
   sodipodi:docname="left_side.svg"
   inkscape:version="0.92.4 5da689c313, 2019-01-14">
  <metadata
     id="metadata30">
    <rdf:RDF>
      <cc:Work
         rdf:about="">
        <dc:format>image/svg+xml</dc:format>
        <dc:type
           rdf:resource="http://purl.org/dc/dcmitype/StillImage" />
      </cc:Work>
    </rdf:RDF>
  </metadata>
  <sodipodi:namedview
     pagecolor="#ffffff"
     bordercolor="#666666"
     borderopacity="1"
     objecttolerance="10"
     gridtolerance="10"
     guidetolerance="10"
     inkscape:pageopacity="0"
     inkscape:pageshadow="2"
     inkscape:window-width="1366"
     inkscape:window-height="705"
     id="namedview28"
     showgrid="true"
     inkscape:zoom="7.4182129"
     inkscape:cx="14.733524"
     inkscape:cy="11.381769"
     inkscape:window-x="0"
     inkscape:window-y="34"
     inkscape:window-maximized="1"
     inkscape:current-layer="svg26"
     inkscape:snap-bbox="true"
     inkscape:bbox-nodes="true"
     inkscape:snap-bbox-edge-midpoints="true">
    <inkscape:grid
       type="xygrid"
       id="grid854" />
  </sodipodi:namedview>
  <defs
     id="defs8">
    <filter
       id="b"
       x="-.55819"
       y="-.12404"
       width="2.1164"
       height="1.2481"
       color-interpolation-filters="sRGB">
      <feGaussianBlur
         stdDeviation="0.93030967"
         id="feGaussianBlur2" />
    </filter>
    <filter
       id="a"
       x="-.15709"
       y="-.15901"
       width="1.3142"
       height="1.318"
       color-interpolation-filters="sRGB">
      <feGaussianBlur
         stdDeviation="0.93030967"
         id="feGaussianBlur5" />
    </filter>
    <filter
       inkscape:collect="always"
       style="color-interpolation-filters:sRGB"
       id="filter887"
       x="-0.10695652"
       width="1.213913"
       y="-0.13666667"
       height="1.2733333">
      <feGaussianBlur
         inkscape:collect="always"
         stdDeviation="1.025"
         id="feGaussianBlur889" />
    </filter>
  </defs>
  <path
     inkscape:connector-curvature="0"
     id="path849"
     d="m 3,8.203125 a 1.0001,1.0001 0 0 0 -1,1 v 16 a 1.0001,1.0001 0 0 0 1,1 h 1 a 1.0001,1.0001 0 0 0 1,-1 v -16 a 1.0001,1.0001 0 0 0 -1,-1 z m 13.976562,2 a 1.0001,1.0001 0 0 0 -0.490234,0.142578 l -9.9999999,6 a 1.0001,1.0001 0 0 0 0,1.714844 l 9.9999999,6 a 1.0001,1.0001 0 0 0 1.28125,-0.216797 l 1.800781,-2.160156 A 1.0001,1.0001 0 0 0 19.441406,20.275391 C 18.529192,19.515897 18.001214,18.392007 18,17.205078 v -0.002 c 0.0021,-1.186638 0.529028,-2.309515 1.441406,-3.068359 a 1.0001,1.0001 0 0 0 0.128906,-1.410157 L 17.767578,10.5625 A 1.0001,1.0001 0 0 0 16.976562,10.203125 Z M 16.779297,12.5 17.537109,13.408203 C 16.626937,14.481793 16.00179,15.772084 16,17.201172 a 1.0001,1.0001 0 0 0 0,0.002 C 16.000767,18.633337 16.624435,19.925394 17.535156,21 L 16.779297,21.904297 8.9433594,17.203125 Z M 22,14.203125 c -1.64501,0 -3,1.35499 -3,3 0,1.64501 1.35499,3 3,3 1.64501,0 3,-1.35499 3,-3 0,-1.64501 -1.35499,-3 -3,-3 z m 0,2 c 0.564129,0 1,0.435871 1,1 0,0.564129 -0.435871,1 -1,1 -0.564129,0 -1,-0.435871 -1,-1 0,-0.564129 0.435871,-1 1,-1 z"
     style="color:#000000;font-style:normal;font-variant:normal;font-weight:normal;font-stretch:normal;font-size:medium;line-height:normal;font-family:sans-serif;font-variant-ligatures:normal;font-variant-position:normal;font-variant-caps:normal;font-variant-numeric:normal;font-variant-alternates:normal;font-feature-settings:normal;text-indent:0;text-align:start;text-decoration:none;text-decoration-line:none;text-decoration-style:solid;text-decoration-color:#000000;letter-spacing:normal;word-spacing:normal;text-transform:none;writing-mode:lr-tb;direction:ltr;text-orientation:mixed;dominant-baseline:auto;baseline-shift:baseline;text-anchor:start;white-space:normal;shape-padding:0;clip-rule:nonzero;display:inline;overflow:visible;visibility:visible;opacity:0.35;isolation:auto;mix-blend-mode:normal;color-interpolation:sRGB;color-interpolation-filters:linearRGB;solid-color:#000000;solid-opacity:1;vector-effect:none;fill:#000000;fill-opacity:1;fill-rule:nonzero;stroke:none;stroke-width:2;stroke-linecap:round;stroke-linejoin:round;stroke-miterlimit:4;stroke-dasharray:none;stroke-dashoffset:0;stroke-opacity:1;paint-order:stroke fill markers;filter:url(#filter887);color-rendering:auto;image-rendering:auto;shape-rendering:auto;text-rendering:auto;enable-background:accumulate" />
  <path
     style="color:#000000;font-style:normal;font-variant:normal;font-weight:normal;font-stretch:normal;font-size:medium;line-height:normal;font-family:sans-serif;font-variant-ligatures:normal;font-variant-position:normal;font-variant-caps:normal;font-variant-numeric:normal;font-variant-alternates:normal;font-feature-settings:normal;text-indent:0;text-align:start;text-decoration:none;text-decoration-line:none;text-decoration-style:solid;text-decoration-color:#000000;letter-spacing:normal;word-spacing:normal;text-transform:none;writing-mode:lr-tb;direction:ltr;text-orientation:mixed;dominant-baseline:auto;baseline-shift:baseline;text-anchor:start;white-space:normal;shape-padding:0;clip-rule:nonzero;display:inline;overflow:visible;visibility:visible;opacity:1;isolation:auto;mix-blend-mode:normal;color-interpolation:sRGB;color-interpolation-filters:linearRGB;solid-color:#000000;solid-opacity:1;vector-effect:none;fill:#ffffff;fill-opacity:1;fill-rule:nonzero;stroke:none;stroke-width:2;stroke-linecap:round;stroke-linejoin:round;stroke-miterlimit:4;stroke-dasharray:none;stroke-dashoffset:0;stroke-opacity:1;paint-order:stroke fill markers;color-rendering:auto;image-rendering:auto;shape-rendering:auto;text-rendering:auto;enable-background:accumulate"
     d="M 3,7 A 1.0001,1.0001 0 0 0 2,8 v 16 a 1.0001,1.0001 0 0 0 1,1 H 4 A 1.0001,1.0001 0 0 0 5,24 V 8 A 1.0001,1.0001 0 0 0 4,7 Z M 16.976562,9 A 1.0001,1.0001 0 0 0 16.486328,9.1425781 L 6.4863281,15.142578 a 1.0001,1.0001 0 0 0 0,1.714844 l 9.9999999,6 a 1.0001,1.0001 0 0 0 1.28125,-0.216797 l 1.800781,-2.160156 A 1.0001,1.0001 0 0 0 19.441406,19.072266 C 18.529192,18.312772 18.001214,17.188882 18,16.001953 V 16 c 0.0021,-1.186638 0.529028,-2.309515 1.441406,-3.068359 a 1.0001,1.0001 0 0 0 0.128906,-1.410157 L 17.767578,9.359375 A 1.0001,1.0001 0 0 0 16.976562,9 Z m -0.197265,2.296875 0.757812,0.908203 C 16.626937,13.278668 16.00179,14.568959 16,15.998047 A 1.0001,1.0001 0 0 0 16,16 c 7.67e-4,1.430212 0.624435,2.722269 1.535156,3.796875 L 16.779297,20.701172 8.9433594,16 Z M 22,13 c -1.64501,0 -3,1.35499 -3,3 0,1.64501 1.35499,3 3,3 1.64501,0 3,-1.35499 3,-3 0,-1.64501 -1.35499,-3 -3,-3 z m 0,2 c 0.564129,0 1,0.435871 1,1 0,0.564129 -0.435871,1 -1,1 -0.564129,0 -1,-0.435871 -1,-1 0,-0.564129 0.435871,-1 1,-1 z"
     id="path842"
     inkscape:connector-curvature="0" />
  <path
     style="opacity:1;fill:#282A33;fill-opacity:1;stroke:none;stroke-width:1.99273682;stroke-linecap:round;stroke-linejoin:round;stroke-miterlimit:4;stroke-dasharray:none;stroke-opacity:1;paint-order:stroke fill markers"
     d="M 3 8 L 3 24 L 4 24 L 4 8 L 3 8 z M 17 10 L 7 16 L 17 22 L 18.800781 19.839844 A 5 5 0 0 1 17 16 A 5 5 0 0 1 18.802734 12.162109 L 17 10 z "
     id="rect835" />
  <circle
     r="2"
     cy="16"
     cx="22"
     id="circle839"
     style="opacity:1;fill:#0078d4;fill-opacity:1;stroke:none;stroke-width:1;stroke-linecap:round;stroke-linejoin:round;stroke-miterlimit:4;stroke-dasharray:none;stroke-opacity:1;paint-order:stroke fill markers" />
</svg>

<?xml version="1.0" encoding="UTF-8" standalone="no"?>
<!DOCTYPE svg PUBLIC "-//W3C//DTD SVG 1.1//EN" "http://www.w3.org/Graphics/SVG/1.1/DTD/svg11.dtd">
<svg width="100%" height="100%" viewBox="0 0 32 32" version="1.1" xmlns="http://www.w3.org/2000/svg" xmlns:xlink="http://www.w3.org/1999/xlink" xml:space="preserve" xmlns:serif="http://www.serif.com/" style="fill-rule:evenodd;clip-rule:evenodd;stroke-linejoin:round;stroke-miterlimit:2;">
    <use id="path849" xlink:href="#_Image1" x="0" y="5.128" width="28px" height="24px"/>
    <path id="path842" d="M3,7C2.451,7 2,7.451 2,8L2,24C2,24.549 2.451,25 3,25L4,25C4.549,25 5,24.549 5,24L5,8C5,7.451 4.549,7 4,7L3,7ZM16.977,9C16.804,9.004 16.635,9.053 16.486,9.143L6.486,15.143C6.186,15.323 6.001,15.649 6.001,16C6.001,16.351 6.186,16.677 6.486,16.857L16.486,22.857C16.907,23.109 17.453,23.017 17.768,22.641L19.568,20.48C19.92,20.059 19.862,19.424 19.441,19.072C18.529,18.313 18.001,17.189 18,16.002L18,16C18.002,14.813 18.529,13.69 19.441,12.932C19.67,12.742 19.803,12.459 19.803,12.162C19.803,11.928 19.72,11.701 19.57,11.521L17.768,9.359C17.573,9.125 17.281,8.993 16.977,9ZM16.779,11.297L17.537,12.205C16.627,13.279 16.002,14.569 16,15.998C16,15.999 16,15.999 16,16C16.001,17.43 16.624,18.722 17.535,19.797L16.779,20.701L8.943,16L16.779,11.297ZM22,13C20.355,13 19,14.355 19,16C19,17.645 20.355,19 22,19C23.645,19 25,17.645 25,16C25,14.355 23.645,13 22,13ZM22,15C22.564,15 23,15.436 23,16C23,16.564 22.564,17 22,17C21.436,17 21,16.564 21,16C21,15.436 21.436,15 22,15Z" style="fill:white;fill-rule:nonzero;"/>
    <path id="rect835" d="M3,8L3,24L4,24L4,8L3,8ZM17,10L7,16L17,22L18.801,19.84C17.661,18.891 17.001,17.483 17,16C17.002,14.518 17.663,13.11 18.803,12.162L17,10Z" style="fill-rule:nonzero;"/>
    <circle id="circle839" cx="22" cy="16" r="2" style="fill:rgb(0,120,212);"/>
    <defs>
        <image id="_Image1" width="28px" height="24px" xlink:href="data:image/png;base64,iVBORw0KGgoAAAANSUhEUgAAABwAAAAYCAYAAADpnJ2CAAAACXBIWXMAAA7EAAAOxAGVKw4bAAACBElEQVRIibWW23LbMAxEj26W0/T/v7SNJdkS88DdEqIlp9NJMYMhrQG5WNzohiyN1JKk3y4d0Grtpe3/AIqAHXAB3oBRoAAbr1k6Km34/aWY1RV4BwbgrsPbCWgEagPQBqx8kY6ezPAK/CQznHVwPvDaQL2c8/kNeACL1tPoOGeDwN70fai8N6su2F7JqeiDgx/ARI7SKaC97oIaLIauF8A16BgY3nSn2a3aE8FdIJFFZGWwyMrMYkhtv0ohh9ag1h1gBDYjM4hAjoALxPf05JQk2TzIoV0oIU5ngK7ci3QUo4ZSHFtg50hcZDPKznlFgGsNaHYD8CNc0gtgks66wI6YlcPsHA66d5UDT4D21oZD2E9idhOgw56qs3baBXPXmRZoXo2xplotidfN3Rzs/3w7YugmnilN7FwN5Nz6gq4C8LTxfiYzfNjBGjDJ8E5OdqIUjadLo3WjDA6PwlVnnTMXzaJvh1WaZOyJ4YodKQXk3MXKTAJwjt0WM6WqTwFjWB2W5QDYkwnZTMBvgbrx3fynIY2ga1B7fGc/CKC0zE06sX85dqPt6PItGG7sWRt0YT9LJ3K+YrE9Sc/+aWk4fmJq4FV2EzmPKTjx4Lxldk/LL0q+/CbGgzE8tZP+dvZoPwFOlH6z9zXgEfBK6cNUrYdSv4X21rn89n9v9ftnwL/y9l/kE7vv7MfzM6F/AAAAAElFTkSuQmCC"/>
    </defs>
</svg>
